src/assets/images/free-demat-compaign/open-demat-account-with-free-call-for-trade-facility.svg

<svg width="110" height="108" viewBox="0 0 110 108" fill="none" xmlns="http://www.w3.org/2000/svg">
<path d="M14.6137 15.1256C31.6794 15.1256 48.745 15.1256 65.7617 15.1256C68.5079 15.1256 70.0281 13.6054 70.0281 10.9082C70.0281 10.0746 70.0281 9.19186 70.0281 8.30916C70.0281 5.17064 68.6059 3.7485 65.4184 3.7485C48.4508 3.7485 31.4342 3.7485 14.4666 3.7485H13.2406C13.2406 3.40523 13.2406 3.25811 13.2406 3.06195C13.2896 1.83597 12.9954 0.757107 11.8185 0.217675C10.5925 -0.321757 9.66074 0.217675 8.72899 1.0023C6.42415 2.96387 4.1193 4.82737 1.81445 6.78894C1.1279 7.37741 0.588471 8.06396 0 8.70147V10.2217C0.294236 10.614 0.539432 11.0554 0.931746 11.3496C3.72698 13.7035 6.52222 16.0083 9.31746 18.3622C10.0531 18.9997 10.9358 19.0978 11.8185 18.7055C12.7012 18.3132 13.1425 17.5776 13.2406 16.5968C13.2406 16.1554 13.2406 15.7141 13.2406 15.1747C13.78 15.1747 14.2214 15.1747 14.6627 15.1747L14.6137 15.1256Z" fill="url(#paint0_linear_258_105)"/>
<path d="M77.4332 78.5333C71.4014 74.316 65.3695 70.0986 59.3377 65.8812C57.7194 64.7533 57.0328 64.8514 55.8069 66.3716C53.1097 69.5591 50.4125 72.7957 47.7644 75.9833C45.7048 78.4843 43.0566 79.7103 39.8201 79.2689C34.0825 78.4843 31.8266 73.2371 35.0632 69.0687C37.9075 65.3908 40.4576 61.5167 43.1057 57.6916C45.0673 54.8474 47.6173 52.6406 50.7558 51.1204C51.4914 50.7771 52.227 50.3848 53.2568 49.8454C49.8241 48.9136 46.6856 49.0607 43.7922 50.3848C40.3595 51.954 36.9758 53.7195 33.6411 55.4358C31.7776 56.3676 29.8651 56.858 27.7564 56.8089C24.5198 56.7599 21.3322 56.8089 18.0957 56.8089H16.9677C16.9187 57.1522 16.8697 57.3484 16.8206 57.5936C16.2812 62.6446 15.6927 67.6957 15.1533 72.6977C14.761 76.2285 14.3687 79.7103 14.0254 83.2411C14.0254 83.5353 14.1725 84.0748 14.3687 84.1729C15.5946 84.7613 16.9187 85.2517 18.2918 85.8402C19.763 83.045 21.8717 81.2795 25.1083 81.4757C28.3939 81.6718 30.3555 83.5844 31.3853 86.6739C33.2488 86.3306 35.0632 86.4777 36.6815 87.4585C38.2998 88.4393 39.2806 89.9595 39.8201 91.6759C44.1845 90.9893 46.8817 92.8038 48.3038 96.7269C48.549 96.7269 48.6962 96.7269 48.7942 96.7269C53.4039 95.7461 58.2098 100.209 56.4934 105.701C56.3953 105.995 56.5915 106.486 56.7876 106.731C57.0819 107.074 57.4742 107.368 57.8665 107.565C58.8963 108.153 59.9262 108.153 60.9069 107.516C61.8877 106.878 62.4272 105.897 62.1329 104.769C61.9368 103.985 61.3973 103.249 60.9069 102.612C60.2694 101.778 60.1714 100.846 60.7598 100.062C61.3483 99.326 62.28 99.1298 63.1627 99.6202C63.3589 99.7183 63.506 99.8654 63.7022 99.9635C65.4676 100.895 67.4292 100.013 67.9196 98.1C68.2138 96.825 67.7234 95.8932 66.8407 95.0105C65.958 94.1769 65.9089 93.147 66.5955 92.3134C67.282 91.5287 68.3119 91.4307 69.2927 92.1172C69.6359 92.3624 69.9792 92.6566 70.3225 92.9018C71.7446 93.9317 73.412 93.8336 74.4418 92.5586C75.5206 91.2345 75.3245 89.5181 73.9514 88.3412C73.461 87.8998 72.9216 87.5566 72.4312 87.1152C71.5975 86.3796 71.4994 85.3498 72.1369 84.5161C72.7254 83.7315 73.7062 83.5353 74.6379 84.0257C74.9322 84.1728 75.2264 84.418 75.5697 84.5652C76.6976 85.0556 77.7765 84.9084 78.6592 84.1238C79.5419 83.3392 79.7871 82.3584 79.4928 81.1815C79.1986 80.0045 78.463 79.1708 77.4822 78.4843L77.4332 78.5333Z" fill="url(#paint1_linear_258_105)"/>
<path d="M93.0775 57.4956C93.0285 56.9561 92.7833 56.76 92.2438 56.76C90.7236 56.76 89.2524 56.76 87.7322 56.76C85.6726 56.8581 83.8091 56.3677 81.9456 55.3869C78.9542 53.8176 75.9137 52.3464 72.8733 50.8262C68.4107 48.6195 63.9482 48.6195 59.4856 50.8262C57.0827 52.0522 54.7288 53.2291 52.2768 54.4061C49.7758 55.6321 47.7652 57.3975 46.1469 59.6533C43.4007 63.5764 40.6545 67.4996 37.9083 71.4227C36.7804 73.041 37.1237 74.267 38.9381 75.1007C40.9487 75.9834 43.0574 75.493 44.6267 73.6295C47.471 70.2458 50.3152 66.813 53.1595 63.4293C55.1701 61.0754 58.2596 60.536 60.7606 62.2524C67.2338 66.7149 73.6579 71.2266 80.0821 75.7872C82.3379 77.4055 83.4168 79.7104 83.2206 82.5546C83.2206 82.7508 83.2206 82.9469 83.2206 83.1921H95.8237C95.5785 80.9854 95.3333 78.9257 95.1371 76.8661C94.4016 70.3439 93.666 63.8707 92.9794 57.3484L93.0775 57.4956Z" fill="url(#paint2_linear_258_105)"/>
<path d="M108.917 26.5027C106.171 24.1488 103.326 21.795 100.531 19.4901C99.7955 18.8526 98.9128 18.7545 98.0301 19.1959C97.0983 19.5882 96.706 20.3728 96.6079 21.3046C96.6079 21.7459 96.6079 22.1382 96.6079 22.7267H95.0387C78.0711 22.7267 61.0544 22.7267 44.0869 22.7267C41.2916 22.7267 39.7714 24.2469 39.7714 27.0422C39.7714 27.8268 39.7714 28.6114 39.7714 29.396C39.5752 32.2403 41.2426 34.1529 44.4301 34.1529C61.3487 34.0548 78.2672 34.1529 95.1858 34.1529H96.6079C96.6079 34.6432 96.6079 34.9375 96.6079 35.2808C96.6079 36.3596 97.0002 37.2423 98.0301 37.7327C99.0599 38.2231 99.9916 37.9289 100.825 37.2423C103.522 34.9865 106.22 32.7798 108.917 30.524C110.29 29.396 110.339 27.7778 109.015 26.6498L108.917 26.5027Z" fill="url(#paint3_linear_258_105)"/>
<path d="M11.5728 53.033C9.80743 53.033 8.09106 53.033 6.32564 53.033C4.85447 53.033 3.43233 53.033 1.91211 53.033V83.2902H9.95455C9.95455 83.1431 10.0526 83.045 10.0526 82.9469C11.1315 73.5804 12.1613 64.2139 13.1911 54.8474C13.2892 53.7686 12.7008 53.082 11.5728 53.082V53.033Z" fill="url(#paint4_linear_258_105)"/>
<path d="M98.5194 53.033C96.9501 53.033 96.4597 53.6705 96.6069 55.2397C97.2444 60.7321 97.8328 66.2245 98.4213 71.766C98.8627 75.591 99.304 79.4161 99.6963 83.2902H107.788V53.033C104.649 53.033 101.56 53.033 98.4703 53.033H98.5194Z" fill="url(#paint5_linear_258_105)"/>
<path d="M26.3834 85.8404C25.5007 85.1539 24.0786 85.0068 23.1469 85.6933C21.7738 86.6741 21.1362 88.0962 20.793 89.4693C20.793 90.9896 21.5776 92.1665 22.7055 92.6078C23.8824 93.0492 25.0594 92.9021 25.844 91.9213C26.5306 91.0386 27.1681 90.0088 27.5114 88.9789C27.9527 87.753 27.4133 86.6741 26.3834 85.8404Z" fill="url(#paint6_linear_258_105)"/>
<path d="M51.0014 100.503C49.8735 100.061 48.5495 100.307 47.8139 101.238C47.1764 102.072 46.5879 103.004 46.2446 103.985C45.8033 105.211 46.2446 106.289 47.2745 107.123C48.2062 107.908 49.5793 108.055 50.5601 107.368C51.9822 106.388 52.6197 104.916 52.963 103.543C52.963 102.023 52.1784 100.895 51.0014 100.454V100.503Z" fill="url(#paint7_linear_258_105)"/>
<path d="M33.9352 90.401C32.6602 90.0087 31.3852 90.401 30.6005 91.627C30.2082 92.2155 29.8159 92.853 29.5217 93.4905C28.639 95.5501 30.0611 97.7569 32.2188 97.904C32.7583 97.7079 33.3467 97.6588 33.7881 97.3155C35.0631 96.3348 35.8477 95.0107 35.9948 93.4414C36.142 92.0683 35.2102 90.8424 33.9352 90.45V90.401Z" fill="url(#paint8_linear_258_105)"/>
<path d="M43.3016 95.9422C42.3208 95.1576 40.8987 95.0105 39.9179 95.7461C38.5939 96.7269 37.9563 98.149 37.6621 99.375C37.6621 101.042 38.4958 102.219 39.7218 102.661C40.9477 103.053 42.2718 102.661 43.0074 101.533C43.4487 100.895 43.8411 100.209 44.1843 99.4731C44.7238 98.198 44.3315 96.7759 43.3016 95.8932V95.9422Z" fill="url(#paint9_linear_258_105)"/>
<defs>
<linearGradient id="paint0_linear_258_105" x1="35.014" y1="0" x2="35.014" y2="18.9378" gradientUnits="userSpaceOnUse">
<stop stop-color="#8EF8AA"/>
<stop offset="1" stop-color="#00EFD1"/>
</linearGradient>
<linearGradient id="paint1_linear_258_105" x1="46.8183" y1="49.2495" x2="46.8183" y2="108" gradientUnits="userSpaceOnUse">
<stop stop-color="#8EF8AA"/>
<stop offset="1" stop-color="#00EFD1"/>
</linearGradient>
<linearGradient id="paint2_linear_258_105" x1="66.5417" y1="49.1711" x2="66.5417" y2="83.1921" gradientUnits="userSpaceOnUse">
<stop stop-color="#8EF8AA"/>
<stop offset="1" stop-color="#00EFD1"/>
</linearGradient>
<linearGradient id="paint3_linear_258_105" x1="74.8669" y1="18.925" x2="74.8669" y2="37.9762" gradientUnits="userSpaceOnUse">
<stop stop-color="#8EF8AA"/>
<stop offset="1" stop-color="#00EFD1"/>
</linearGradient>
<linearGradient id="paint4_linear_258_105" x1="7.55691" y1="53.033" x2="7.55691" y2="83.2902" gradientUnits="userSpaceOnUse">
<stop stop-color="#8EF8AA"/>
<stop offset="1" stop-color="#00EFD1"/>
</linearGradient>
<linearGradient id="paint5_linear_258_105" x1="102.185" y1="53.033" x2="102.185" y2="83.2902" gradientUnits="userSpaceOnUse">
<stop stop-color="#8EF8AA"/>
<stop offset="1" stop-color="#00EFD1"/>
</linearGradient>
<linearGradient id="paint6_linear_258_105" x1="24.2297" y1="85.2461" x2="24.2297" y2="92.8445" gradientUnits="userSpaceOnUse">
<stop stop-color="#8EF8AA"/>
<stop offset="1" stop-color="#00EFD1"/>
</linearGradient>
<linearGradient id="paint7_linear_258_105" x1="49.5186" y1="100.29" x2="49.5186" y2="107.807" gradientUnits="userSpaceOnUse">
<stop stop-color="#8EF8AA"/>
<stop offset="1" stop-color="#00EFD1"/>
</linearGradient>
<linearGradient id="paint8_linear_258_105" x1="32.633" y1="90.2546" x2="32.633" y2="97.904" gradientUnits="userSpaceOnUse">
<stop stop-color="#8EF8AA"/>
<stop offset="1" stop-color="#00EFD1"/>
</linearGradient>
<linearGradient id="paint9_linear_258_105" x1="41.0442" y1="95.2668" x2="41.0442" y2="102.809" gradientUnits="userSpaceOnUse">
<stop stop-color="#8EF8AA"/>
<stop offset="1" stop-color="#00EFD1"/>
</linearGradient>
</defs>
</svg>

<svg width="110" height="108" fill="none" xmlns="http://www.w3.org/2000/svg"><path d="M14.614 15.126h51.148c2.746 0 4.266-1.52 4.266-4.218V8.31c0-3.138-1.422-4.56-4.61-4.56H13.241v-.687c.049-1.226-.246-2.305-1.422-2.844-1.227-.54-2.158 0-3.09.784-2.305 1.962-4.61 3.825-6.915 5.787C1.128 7.377.588 8.064 0 8.7v1.52c.294.393.54.834.932 1.129 2.795 2.354 5.59 4.658 8.385 7.012.736.638 1.619.736 2.502.344.882-.393 1.323-1.128 1.422-2.11v-1.421h1.422l-.05-.05z" fill="url(#a)"/><path d="M77.433 78.533 59.338 65.881c-1.619-1.128-2.305-1.03-3.531.49a1387.982 1387.982 0 0 0-8.043 9.612c-2.06 2.501-4.707 3.727-7.944 3.286-5.737-.785-7.993-6.032-4.757-10.2 2.844-3.678 5.395-7.552 8.043-11.377 1.961-2.845 4.511-5.051 7.65-6.572.735-.343 1.471-.735 2.5-1.275-3.432-.931-6.57-.784-9.464.54-3.433 1.569-6.816 3.334-10.15 5.05-1.864.933-3.777 1.423-5.886 1.374-3.236-.05-6.424 0-9.66 0h-1.128c-.05.343-.098.54-.147.785-.54 5.05-1.128 10.102-1.668 15.104-.392 3.53-.784 7.012-1.128 10.543 0 .294.147.834.344.932 1.226.588 2.55 1.079 3.923 1.667 1.471-2.795 3.58-4.56 6.816-4.364 3.286.196 5.247 2.108 6.277 5.198 1.864-.343 3.678-.196 5.296.784 1.619.981 2.6 2.502 3.14 4.218 4.364-.687 7.06 1.128 8.483 5.05h.49c4.61-.98 9.416 3.483 7.7 8.975-.099.294.098.785.294 1.03.294.343.686.637 1.079.834 1.03.588 2.06.588 3.04-.049.98-.638 1.52-1.619 1.226-2.747-.196-.784-.736-1.52-1.226-2.157-.638-.834-.736-1.766-.147-2.55.588-.736 1.52-.932 2.403-.442.196.098.343.245.54.343 1.765.932 3.726.05 4.217-1.863.294-1.275-.197-2.207-1.08-3.09-.882-.833-.931-1.863-.245-2.697.687-.784 1.717-.882 2.698-.196.343.245.686.54 1.03.785 1.422 1.03 3.089.932 4.119-.343 1.079-1.325.883-3.04-.49-4.218-.491-.441-1.03-.784-1.52-1.226-.835-.735-.933-1.765-.295-2.599.588-.785 1.57-.98 2.5-.49.295.147.59.392.933.54 1.128.49 2.207.342 3.09-.442.882-.785 1.127-1.766.833-2.942-.294-1.178-1.03-2.011-2.01-2.698l-.05.05z" fill="url(#b)"/><path d="M93.078 57.496c-.05-.54-.295-.736-.834-.736h-4.512c-2.06.098-3.923-.392-5.786-1.373-2.992-1.57-6.032-3.04-9.073-4.56-4.462-2.207-8.925-2.207-13.387 0a328.564 328.564 0 0 1-7.21 3.58c-2.5 1.225-4.51 2.99-6.13 5.246l-8.238 11.77c-1.128 1.618-.784 2.844 1.03 3.678 2.01.882 4.12.392 5.689-1.472 2.844-3.383 5.688-6.816 8.532-10.2 2.011-2.354 5.1-2.893 7.602-1.177a1710.349 1710.349 0 0 1 19.321 13.535c2.256 1.618 3.335 3.923 3.139 6.768v.637h12.603c-.245-2.207-.49-4.266-.687-6.326-.735-6.522-1.471-12.995-2.158-19.518l.099.148z" fill="url(#c)"/><path d="M108.917 26.503c-2.746-2.354-5.591-4.708-8.386-7.013-.736-.637-1.618-.735-2.5-.294-.933.392-1.325 1.177-1.423 2.109v1.422H44.087c-2.795 0-4.316 1.52-4.316 4.315v2.354c-.196 2.844 1.472 4.757 4.66 4.757 16.918-.098 33.836 0 50.755 0h1.422v1.128c0 1.079.392 1.961 1.422 2.452 1.03.49 1.962.196 2.795-.49 2.697-2.257 5.395-4.463 8.092-6.719 1.373-1.128 1.422-2.746.098-3.874l-.098-.147z" fill="url(#d)"/><path d="M11.573 53.033H1.912V83.29h8.043c0-.147.098-.245.098-.343 1.079-9.367 2.108-18.733 3.138-28.1.098-1.078-.49-1.765-1.618-1.765v-.049z" fill="url(#e)"/><path d="M98.52 53.033c-1.57 0-2.06.637-1.913 2.207.637 5.492 1.226 10.985 1.814 16.526.442 3.825.883 7.65 1.275 11.524h8.092V53.033H98.47h.05z" fill="url(#f)"/><path d="M26.383 85.84c-.882-.686-2.304-.833-3.236-.147-1.373.981-2.01 2.403-2.354 3.776 0 1.52.785 2.698 1.913 3.139 1.176.441 2.353.294 3.138-.687.687-.882 1.324-1.912 1.667-2.942.442-1.226-.098-2.305-1.128-3.139z" fill="url(#g)"/><path d="M51.001 100.503c-1.127-.442-2.451-.196-3.187.735-.638.834-1.226 1.766-1.57 2.747-.44 1.226 0 2.304 1.03 3.138.932.785 2.305.932 3.286.245 1.422-.98 2.06-2.452 2.403-3.825 0-1.52-.785-2.648-1.962-3.089v.049z" fill="url(#h)"/><path d="M33.935 90.401c-1.275-.392-2.55 0-3.335 1.226-.392.589-.784 1.226-1.078 1.864-.883 2.06.54 4.266 2.697 4.413.54-.196 1.128-.245 1.57-.588 1.274-.981 2.059-2.305 2.206-3.875.147-1.373-.785-2.599-2.06-2.991v-.049z" fill="url(#i)"/><path d="M43.302 95.942c-.981-.784-2.403-.931-3.384-.196-1.324.98-1.962 2.403-2.256 3.629 0 1.667.834 2.844 2.06 3.286 1.226.392 2.55 0 3.285-1.128a14.05 14.05 0 0 0 1.177-2.06c.54-1.275.148-2.697-.882-3.58v.05z" fill="url(#j)"/><defs><linearGradient id="a" x1="35.014" y1="0" x2="35.014" y2="18.938" gradientUnits="userSpaceOnUse"><stop stop-color="#8EF8AA"/><stop offset="1" stop-color="#00EFD1"/></linearGradient><linearGradient id="b" x1="46.818" y1="49.249" x2="46.818" y2="108" gradientUnits="userSpaceOnUse"><stop stop-color="#8EF8AA"/><stop offset="1" stop-color="#00EFD1"/></linearGradient><linearGradient id="c" x1="66.542" y1="49.171" x2="66.542" y2="83.192" gradientUnits="userSpaceOnUse"><stop stop-color="#8EF8AA"/><stop offset="1" stop-color="#00EFD1"/></linearGradient><linearGradient id="d" x1="74.867" y1="18.925" x2="74.867" y2="37.976" gradientUnits="userSpaceOnUse"><stop stop-color="#8EF8AA"/><stop offset="1" stop-color="#00EFD1"/></linearGradient><linearGradient id="e" x1="7.557" y1="53.033" x2="7.557" y2="83.29" gradientUnits="userSpaceOnUse"><stop stop-color="#8EF8AA"/><stop offset="1" stop-color="#00EFD1"/></linearGradient><linearGradient id="f" x1="102.185" y1="53.033" x2="102.185" y2="83.29" gradientUnits="userSpaceOnUse"><stop stop-color="#8EF8AA"/><stop offset="1" stop-color="#00EFD1"/></linearGradient><linearGradient id="g" x1="24.23" y1="85.246" x2="24.23" y2="92.844" gradientUnits="userSpaceOnUse"><stop stop-color="#8EF8AA"/><stop offset="1" stop-color="#00EFD1"/></linearGradient><linearGradient id="h" x1="49.519" y1="100.29" x2="49.519" y2="107.807" gradientUnits="userSpaceOnUse"><stop stop-color="#8EF8AA"/><stop offset="1" stop-color="#00EFD1"/></linearGradient><linearGradient id="i" x1="32.633" y1="90.255" x2="32.633" y2="97.904" gradientUnits="userSpaceOnUse"><stop stop-color="#8EF8AA"/><stop offset="1" stop-color="#00EFD1"/></linearGradient><linearGradient id="j" x1="41.044" y1="95.267" x2="41.044" y2="102.809" gradientUnits="userSpaceOnUse"><stop stop-color="#8EF8AA"/><stop offset="1" stop-color="#00EFD1"/></linearGradient></defs></svg>
